svgs/ebay.svg

<svg width="192" height="192" viewBox="0 0 192 192" fill="none" xmlns="http://www.w3.org/2000/svg"><path d="M105 22v42m-4 44 25 42m25-42-25 42m0 0-11.905 20" stroke="#000" stroke-width="12" stroke-linecap="round"/><circle cx="127" cy="64" r="22" stroke="#000" stroke-width="12"/><circle cx="63" cy="128" r="22" stroke="#000" stroke-width="12"/><path d="M63 86c-12.15 0-22-9.85-22-22m0 0c0-12.15 9.85-22 22-22s22 9.85 22 22H41Z" stroke="#000" stroke-width="12" stroke-linecap="round" stroke-linejoin="round"/><path d="M85 150v-23M62 86c5.4 0 10.507-1.26 15.042-3.5" stroke="#000" stroke-width="12" stroke-linecap="round"/></svg>

<?xml version="1.0" encoding="UTF-8" standalone="no"?><svg xmlns:android="http://schemas.android.com/apk/res/android" height="192" width="192" xmlns="http://www.w3.org/2000/svg">
  <path d="M105,22L105,64" fill="#000000" fill-opacity="0.0" stroke="#000000" stroke-linecap="round" stroke-width="12"/>
  <path d="M101,108L126,150" fill="#000000" fill-opacity="0.0" stroke="#000000" stroke-linecap="round" stroke-width="12"/>
  <path d="M151,108L126,150" fill="#000000" fill-opacity="0.0" stroke="#000000" stroke-linecap="round" stroke-width="12"/>
  <path d="M126,150L114.095,170" fill="#000000" fill-opacity="0.0" stroke="#000000" stroke-linecap="round" stroke-width="12"/>
  <path d="M127,64m-22,0a22,22 0,1 1,44 0a22,22 0,1 1,-44 0" fill="#000000" fill-opacity="0.0" stroke="#000000" stroke-width="12"/>
  <path d="M63,128m-22,0a22,22 0,1 1,44 0a22,22 0,1 1,-44 0" fill="#000000" fill-opacity="0.0" stroke="#000000" stroke-width="12"/>
  <path d="M63,86C50.85,86 41,76.15 41,64M41,64C41,51.85 50.85,42 63,42C75.15,42 85,51.85 85,64H63H41Z" fill="#000000" fill-opacity="0.0" stroke="#000000" stroke-linecap="round" stroke-linejoin="round" stroke-width="12"/>
  <path d="M85,150V127" fill="#000000" fill-opacity="0.0" stroke="#000000" stroke-linecap="round" stroke-width="12"/>
  <path d="M62,86C67.401,86 72.507,84.741 77.042,82.5" fill="#000000" fill-opacity="0.0" stroke="#000000" stroke-linecap="round" stroke-width="12"/>
</svg>
